Numix-Light/16/status/indicator-keyboard-Ph-8.svg

<?xml version="1.0" encoding="UTF-8" standalone="no"?>
<svg
   xmlns:dc="http://purl.org/dc/elements/1.1/"
   xmlns:cc="http://creativecommons.org/ns#"
   xmlns:rdf="http://www.w3.org/1999/02/22-rdf-syntax-ns#"
   xmlns:svg="http://www.w3.org/2000/svg"
   xmlns="http://www.w3.org/2000/svg"
   xmlns:sodipodi="http://sodipodi.sourceforge.net/DTD/sodipodi-0.dtd"
   xmlns:inkscape="http://www.inkscape.org/namespaces/inkscape"
   viewBox="0 0 16 16"
   id="svg2"
   version="1.1"
   inkscape:version="0.91 r13725"
   sodipodi:docname="indicator-keyboard-Ph-8.svg">
  <metadata
     id="metadata14">
    <rdf:RDF>
      <cc:Work
         rdf:about="">
        <dc:format>image/svg+xml</dc:format>
        <dc:type
           rdf:resource="http://purl.org/dc/dcmitype/StillImage" />
      </cc:Work>
    </rdf:RDF>
  </metadata>
  <defs
     id="defs12" />
  <sodipodi:namedview
     pagecolor="#ffffff"
     bordercolor="#666666"
     borderopacity="1"
     objecttolerance="10"
     gridtolerance="10"
     guidetolerance="10"
     inkscape:pageopacity="0"
     inkscape:pageshadow="2"
     inkscape:window-width="640"
     inkscape:window-height="480"
     id="namedview10"
     showgrid="false"
     inkscape:zoom="14.75"
     inkscape:cx="8"
     inkscape:cy="8"
     inkscape:window-x="65"
     inkscape:window-y="24"
     inkscape:window-maximized="0"
     inkscape:current-layer="svg2" />
  <path
     style="fill:#353535;fill-opacity:1"
     d="M 1.5996094 0 C 0.71320937 2.9605947e-16 0 0.71320937 0 1.5996094 L 0 14.400391 C 2.9605947e-16 15.286791 0.71320937 16 1.5996094 16 L 14.400391 16 C 15.286791 16 16 15.286791 16 14.400391 L 16 1.5996094 C 16 0.71320937 15.286791 0 14.400391 0 L 1.5996094 0 z M 7.6035156 4.1113281 L 7.6035156 6.578125 C 7.7955156 6.506125 7.9895 6.4520156 8.1875 6.4160156 C 8.3855 6.3740156 8.58325 6.3535156 8.78125 6.3535156 C 9.14125 6.3535156 9.4416406 6.4038594 9.6816406 6.5058594 C 9.9216408 6.6078594 10.113812 6.7552656 10.257812 6.9472656 C 10.401813 7.1332656 10.500688 7.3570938 10.554688 7.6210938 C 10.614687 7.8850937 10.644531 8.1761406 10.644531 8.4941406 L 10.644531 11.095703 L 10.060547 11.095703 L 10.060547 8.6835938 C 10.060547 8.3535938 10.036281 8.0756562 9.9882812 7.8476562 C 9.9462813 7.6196563 9.8716719 7.4330625 9.7636719 7.2890625 C 9.6616719 7.1450625 9.5236094 7.0424219 9.3496094 6.9824219 C 9.1756094 6.9164219 8.9554063 6.8847656 8.6914062 6.8847656 C 8.5894062 6.8847656 8.479375 6.8921562 8.359375 6.9101562 C 8.245375 6.9281563 8.1371563 6.9506094 8.0351562 6.9746094 C 7.9331563 6.9926094 7.8398594 7.0131094 7.7558594 7.0371094 C 7.6778594 7.0611094 7.6275156 7.0797969 7.6035156 7.0917969 L 7.6035156 11.095703 L 7.0175781 11.095703 L 7.0175781 4.2207031 L 7.6035156 4.1113281 z M 3.3027344 4.8046875 C 4.1847344 4.8046875 4.8414375 4.9725937 5.2734375 5.3085938 C 5.7054375 5.6445937 5.921875 6.1222344 5.921875 6.7402344 C 5.921875 7.0942344 5.8584219 7.3964375 5.7324219 7.6484375 C 5.6064219 7.8944375 5.4273594 8.0959531 5.1933594 8.2519531 C 4.9593594 8.4019531 4.670125 8.5139375 4.328125 8.5859375 C 3.992125 8.6519375 3.6115469 8.6835937 3.1855469 8.6835938 L 2.3398438 8.6835938 L 2.3398438 11.095703 L 1.7285156 11.095703 L 1.7285156 4.9765625 C 1.9445156 4.9165625 2.196375 4.8736094 2.484375 4.8496094 C 2.778375 4.8196094 3.0507344 4.8046875 3.3027344 4.8046875 z M 3.3300781 5.3359375 C 3.1020781 5.3359375 2.9061406 5.3452813 2.7441406 5.3632812 C 2.5881406 5.3752812 2.4538437 5.3864375 2.3398438 5.3984375 L 2.3398438 8.1523438 L 3.1132812 8.1523438 C 3.4432812 8.1523438 3.7399063 8.1356094 4.0039062 8.0996094 C 4.2739062 8.0576094 4.5034531 7.9848125 4.6894531 7.8828125 C 4.8814531 7.7748125 5.0269063 7.6274062 5.1289062 7.4414062 C 5.2309062 7.2554063 5.2832031 7.0184687 5.2832031 6.7304688 C 5.2832031 6.4544688 5.2253281 6.226875 5.1113281 6.046875 C 5.0033281 5.866875 4.8559219 5.7250469 4.6699219 5.6230469 C 4.4899219 5.5150469 4.2828281 5.4404375 4.0488281 5.3984375 C 3.8148281 5.3564375 3.5760781 5.3359375 3.3300781 5.3359375 z M 13.007812 8.7539062 C 13.210612 8.7539062 13.386956 8.7852563 13.535156 8.8476562 C 13.683356 8.9061562 13.804838 8.9845313 13.898438 9.0820312 C 13.995937 9.1795312 14.066475 9.2912156 14.109375 9.4160156 C 14.156175 9.5408156 14.179687 9.6681812 14.179688 9.8007812 C 14.179688 9.9294812 14.160094 10.049003 14.121094 10.158203 C 14.082094 10.263503 14.03115 10.361472 13.96875 10.451172 C 13.90635 10.536972 13.835812 10.613388 13.757812 10.679688 C 13.679812 10.745988 13.603397 10.800856 13.529297 10.847656 C 13.802297 10.964656 13.994316 11.111609 14.103516 11.287109 C 14.216616 11.462609 14.271484 11.64875 14.271484 11.84375 C 14.271484 12.01145 14.242087 12.164288 14.179688 12.304688 C 14.121187 12.445088 14.036934 12.566569 13.927734 12.667969 C 13.818534 12.765469 13.685297 12.841884 13.529297 12.896484 C 13.373297 12.954984 13.198912 12.984375 13.007812 12.984375 C 12.816712 12.984375 12.644281 12.956944 12.488281 12.902344 C 12.336181 12.847744 12.202944 12.771328 12.089844 12.673828 C 11.980644 12.572428 11.894431 12.454866 11.832031 12.322266 C 11.773531 12.185766 11.746094 12.038806 11.746094 11.878906 C 11.746094 11.742406 11.763734 11.618966 11.802734 11.509766 C 11.841734 11.396666 11.892678 11.296737 11.955078 11.210938 C 12.021378 11.121237 12.095834 11.042863 12.177734 10.976562 C 12.263534 10.906363 12.353666 10.845622 12.447266 10.794922 C 12.209366 10.677922 12.046738 10.540759 11.960938 10.380859 C 11.875138 10.220959 11.832031 10.046575 11.832031 9.859375 C 11.832031 9.691675 11.861422 9.5407968 11.919922 9.4042969 C 11.978422 9.2677969 12.058756 9.1521937 12.160156 9.0585938 C 12.265456 8.9610938 12.390856 8.8866375 12.535156 8.8359375 C 12.679456 8.7813375 12.836212 8.7539062 13.007812 8.7539062 z M 13.007812 9.0820312 C 12.879112 9.0820312 12.767422 9.101625 12.669922 9.140625 C 12.572422 9.179625 12.490128 9.2344875 12.423828 9.3046875 C 12.361428 9.3709875 12.312444 9.4493625 12.277344 9.5390625 C 12.246144 9.6287624 12.230469 9.7208594 12.230469 9.8183594 C 12.230469 9.9275594 12.242225 10.027487 12.265625 10.117188 C 12.292925 10.206888 12.341909 10.289181 12.412109 10.363281 C 12.482309 10.433481 12.580278 10.5001 12.705078 10.5625 C 12.829878 10.621 12.992513 10.677822 13.195312 10.732422 C 13.374713 10.631022 13.517747 10.505622 13.623047 10.357422 C 13.728347 10.209222 13.78125 10.023081 13.78125 9.8007812 C 13.78125 9.7110812 13.765575 9.6248624 13.734375 9.5390625 C 13.707075 9.4532625 13.662009 9.3768469 13.599609 9.3105469 C 13.541109 9.2403469 13.462734 9.1854844 13.365234 9.1464844 C 13.267734 9.1035844 13.148212 9.0820312 13.007812 9.0820312 z M 12.775391 10.929688 C 12.576491 11.023287 12.4217 11.150647 12.3125 11.310547 C 12.2033 11.466547 12.148437 11.656606 12.148438 11.878906 C 12.148438 11.988106 12.166072 12.088041 12.201172 12.181641 C 12.236272 12.275241 12.289175 12.357534 12.359375 12.427734 C 12.433475 12.497934 12.523606 12.554756 12.628906 12.597656 C 12.738106 12.636656 12.863513 12.65625 13.007812 12.65625 C 13.152112 12.65625 13.277513 12.636656 13.382812 12.597656 C 13.492012 12.554756 13.582144 12.497934 13.652344 12.427734 C 13.726444 12.357534 13.781306 12.275241 13.816406 12.181641 C 13.851506 12.088041 13.869141 11.988106 13.869141 11.878906 C 13.869141 11.711206 13.835831 11.57405 13.769531 11.46875 C 13.707131 11.36345 13.622878 11.277238 13.517578 11.210938 C 13.416178 11.144638 13.298616 11.091734 13.166016 11.052734 C 13.037316 11.013734 12.907991 10.972587 12.775391 10.929688 z "
     id="path4" />
</svg>

<svg xmlns="http://www.w3.org/2000/svg" viewBox="0 0 16 16">
 <path d="m 1.6 0 c -0.886 0 -1.6 0.713 -1.6 1.6 l 0 12.801 c 0 0.886 0.713 1.6 1.6 1.6 l 12.801 0 c 0.886 0 1.6 -0.713 1.6 -1.6 l 0 -12.801 c 0 -0.886 -0.713 -1.6 -1.6 -1.6 l -12.801 0 z m 6 4.111 l 0 2.467 c 0.192 -0.072 0.386 -0.126 0.584 -0.162 c 0.198 -0.042 0.396 -0.063 0.594 -0.063 c 0.36 0 0.66 0.05 0.9 0.152 c 0.24 0.102 0.432 0.249 0.576 0.441 c 0.144 0.186 0.243 0.41 0.297 0.674 c 0.06 0.264 0.09 0.555 0.09 0.873 l 0 2.602 l -0.584 0 l 0 -2.412 c 0 -0.33 -0.024 -0.608 -0.072 -0.836 c -0.042 -0.228 -0.117 -0.415 -0.225 -0.559 c -0.102 -0.144 -0.24 -0.247 -0.414 -0.307 c -0.174 -0.066 -0.394 -0.098 -0.658 -0.098 c -0.102 0 -0.212 0.007 -0.332 0.025 c -0.114 0.018 -0.222 0.04 -0.324 0.064 c -0.102 0.018 -0.195 0.038 -0.279 0.063 c -0.078 0.024 -0.128 0.043 -0.152 0.055 l 0 4 l -0.586 0 l 0 -6.875 l 0.586 -0.109 z m -4.301 0.693 c 0.882 0 1.539 0.168 1.971 0.504 c 0.432 0.336 0.648 0.814 0.648 1.432 c 0 0.354 -0.063 0.656 -0.189 0.908 c -0.126 0.246 -0.305 0.448 -0.539 0.604 c -0.234 0.15 -0.523 0.262 -0.865 0.334 c -0.336 0.066 -0.717 0.098 -1.143 0.098 l -0.846 0 l 0 2.412 l -0.611 0 l 0 -6.119 c 0.216 -0.06 0.468 -0.103 0.756 -0.127 c 0.294 -0.03 0.566 -0.045 0.818 -0.045 z m 0.027 0.531 c -0.228 0 -0.424 0.009 -0.586 0.027 c -0.156 0.012 -0.29 0.023 -0.404 0.035 l 0 2.754 l 0.773 0 c 0.33 0 0.627 -0.017 0.891 -0.053 c 0.27 -0.042 0.5 -0.115 0.686 -0.217 c 0.192 -0.108 0.337 -0.255 0.439 -0.441 c 0.102 -0.186 0.154 -0.423 0.154 -0.711 c 0 -0.276 -0.058 -0.504 -0.172 -0.684 c -0.108 -0.18 -0.255 -0.322 -0.441 -0.424 c -0.18 -0.108 -0.387 -0.183 -0.621 -0.225 c -0.234 -0.042 -0.473 -0.063 -0.719 -0.063 z m 9.678 3.418 c 0.203 0 0.379 0.031 0.527 0.094 c 0.148 0.059 0.27 0.137 0.363 0.234 c 0.097 0.098 0.168 0.209 0.211 0.334 c 0.047 0.125 0.07 0.252 0.07 0.385 c 0 0.129 -0.02 0.248 -0.059 0.357 c -0.039 0.105 -0.09 0.203 -0.152 0.293 c -0.062 0.086 -0.133 0.162 -0.211 0.229 c -0.078 0.066 -0.154 0.121 -0.229 0.168 c 0.273 0.117 0.465 0.264 0.574 0.439 c 0.113 0.176 0.168 0.362 0.168 0.557 c 0 0.168 -0.029 0.321 -0.092 0.461 c -0.059 0.14 -0.143 0.262 -0.252 0.363 c -0.109 0.098 -0.242 0.174 -0.398 0.229 c -0.156 0.059 -0.33 0.088 -0.521 0.088 c -0.191 0 -0.364 -0.027 -0.52 -0.082 c -0.152 -0.055 -0.285 -0.131 -0.398 -0.229 c -0.109 -0.101 -0.195 -0.219 -0.258 -0.352 c -0.059 -0.137 -0.086 -0.283 -0.086 -0.443 c 0 -0.136 0.018 -0.26 0.057 -0.369 c 0.039 -0.113 0.09 -0.213 0.152 -0.299 c 0.066 -0.09 0.141 -0.168 0.223 -0.234 c 0.086 -0.07 0.176 -0.131 0.27 -0.182 c -0.238 -0.117 -0.401 -0.254 -0.486 -0.414 c -0.086 -0.16 -0.129 -0.334 -0.129 -0.521 c 0 -0.168 0.029 -0.319 0.088 -0.455 c 0.059 -0.136 0.139 -0.252 0.24 -0.346 c 0.105 -0.098 0.231 -0.172 0.375 -0.223 c 0.144 -0.055 0.301 -0.082 0.473 -0.082 z m 0 0.328 c -0.129 0 -0.24 0.02 -0.338 0.059 c -0.098 0.039 -0.18 0.094 -0.246 0.164 c -0.062 0.066 -0.111 0.145 -0.146 0.234 c -0.031 0.09 -0.047 0.182 -0.047 0.279 c 0 0.109 0.012 0.209 0.035 0.299 c 0.027 0.09 0.076 0.172 0.146 0.246 c 0.07 0.07 0.168 0.137 0.293 0.199 c 0.125 0.059 0.287 0.115 0.49 0.17 c 0.179 -0.101 0.322 -0.227 0.428 -0.375 c 0.105 -0.148 0.158 -0.334 0.158 -0.557 c 0 -0.09 -0.016 -0.176 -0.047 -0.262 c -0.027 -0.086 -0.072 -0.162 -0.135 -0.229 c -0.058 -0.07 -0.137 -0.125 -0.234 -0.164 c -0.097 -0.043 -0.217 -0.064 -0.357 -0.064 z m -0.232 1.848 c -0.199 0.094 -0.354 0.221 -0.463 0.381 c -0.109 0.156 -0.164 0.346 -0.164 0.568 c 0 0.109 0.018 0.209 0.053 0.303 c 0.035 0.094 0.088 0.176 0.158 0.246 c 0.074 0.07 0.164 0.127 0.27 0.17 c 0.109 0.039 0.235 0.059 0.379 0.059 c 0.144 0 0.27 -0.02 0.375 -0.059 c 0.109 -0.043 0.199 -0.1 0.27 -0.17 c 0.074 -0.07 0.129 -0.152 0.164 -0.246 c 0.035 -0.094 0.053 -0.194 0.053 -0.303 c 0 -0.168 -0.033 -0.305 -0.1 -0.41 c -0.062 -0.105 -0.147 -0.192 -0.252 -0.258 c -0.101 -0.066 -0.219 -0.119 -0.352 -0.158 c -0.129 -0.039 -0.258 -0.08 -0.391 -0.123 z" style="fill:#353535;fill-opacity:1"/>
</svg>
